src/assets/rclone-manager.svg

<svg xmlns="http://www.w3.org/2000/svg" width="512" height="512" fill="none" viewBox="0 0 512 512"><path fill="url(#a)" d="M256 500c132.548 0 240-105.661 240-236S388.548 28 256 28 16 133.661 16 264s107.452 236 240 236"/><path fill="url(#b)" d="M256 484c132.548 0 240-105.661 240-236S388.548 12 256 12 16 117.661 16 248s107.452 236 240 236"/><path fill="#70caf2" d="M384.082 252.61c-8.853-15.333-21.734-26.891-36.538-34.106a93.2 93.2 0 0 1-10.908 29.488l-8.567 14.868c5.706 3.17 10.674 7.837 14.178 13.905 10.293 17.825 4.181 40.627-13.649 50.921-17.826 10.293-40.627 4.185-50.921-13.645l-17.288-29.896h-27.898l-13.949 24.158 17.3 29.893c23.636 40.936 75.978 54.962 116.915 31.325 40.932-23.632 54.958-75.974 31.325-116.911"/><path fill="#b4e3f9" d="M298.362 127.065c-40.937-23.633-93.279-9.607-116.911 31.325-8.857 15.334-12.421 32.269-11.269 48.698a93.2 93.2 0 0 1 30.993-5.297l17.155-.016c-.108-6.525 1.453-13.163 4.952-19.226 10.298-17.83 33.096-23.942 50.925-13.645 17.83 10.294 23.938 33.091 13.645 50.921l-17.244 29.921 13.945 24.162 27.898-.004 17.236-29.929c23.637-40.932 9.611-93.278-31.325-116.91"/><path fill="#3f79ad" d="m228.897 342.211-8.596-14.852c-5.598 3.359-12.123 5.326-19.126 5.326-20.591 0-37.281-16.69-37.281-37.281 0-20.587 16.69-37.277 37.281-37.277l34.532-.024 13.953-24.158-13.953-24.158-34.536.032c-47.269 0-85.586 38.32-85.586 85.585 0 47.269 38.317 85.589 85.586 85.589 17.701 0 34.143-5.377 47.791-14.579a93.2 93.2 0 0 1-20.065-24.203"/><defs><linearGradient id="a" x1="16" x2="496" y1="264" y2="264" gradientUnits="userSpaceOnUse"><stop stop-color="#3f79ad"/><stop offset=".413" stop-color="#ebf5ff"/><stop offset=".808" stop-color="#70caf2"/><stop offset="1" stop-color="#e4eff8"/></linearGradient><linearGradient id="b" x1="255.759" x2="255.759" y1="11.999" y2="480.226" gradientUnits="userSpaceOnUse"><stop stop-color="#fff"/><stop offset="1" stop-color="#dbdbdb"/></linearGradient></defs></svg>

<svg width="512" height="512" viewBox="0 0 512 512" fill="none" xmlns="http://www.w3.org/2000/svg">
    <path
        d="M256 500C388.548 500 496 394.339 496 264C496 133.661 388.548 28 256 28C123.452 28 16 133.661 16 264C16 394.339 123.452 500 256 500Z"
        fill="url(#paint0_linear_371_1232)" />
    <path
        d="M256 484C388.548 484 496 378.339 496 248C496 117.661 388.548 12 256 12C123.452 12 16 117.661 16 248C16 378.339 123.452 484 256 484Z"
        fill="url(#paint1_linear_371_1232)" />
    <path
        d="M384.082 252.61C375.229 237.277 362.348 225.719 347.544 218.504C345.65 228.617 342.066 238.585 336.636 247.992L328.069 262.86C333.775 266.03 338.743 270.697 342.247 276.765C352.54 294.59 346.428 317.392 328.598 327.686C310.772 337.979 287.971 331.871 277.677 314.041L260.389 284.145H232.491L218.542 308.303L235.842 338.196C259.478 379.132 311.82 393.158 352.757 369.521C393.689 345.889 407.715 293.547 384.082 252.61Z"
        fill="#70CAF2" />
    <path
        d="M298.362 127.065C257.425 103.432 205.083 117.458 181.451 158.39C172.594 173.724 169.03 190.659 170.182 207.088C179.886 203.673 190.311 201.791 201.175 201.791L218.33 201.775C218.222 195.25 219.783 188.612 223.282 182.549C233.58 164.719 256.378 158.607 274.207 168.904C292.037 179.198 298.145 201.995 287.852 219.825L270.608 249.746L284.553 273.908L312.451 273.904L329.687 243.975C353.324 203.043 339.298 150.697 298.362 127.065Z"
        fill="#B4E3F9" />
    <path
        d="M228.897 342.211L220.301 327.359C214.703 330.718 208.178 332.685 201.175 332.685C180.584 332.685 163.894 315.995 163.894 295.404C163.894 274.817 180.584 258.127 201.175 258.127L235.707 258.103L249.66 233.945L235.707 209.787L201.171 209.819C153.902 209.819 115.585 248.139 115.585 295.404C115.585 342.673 153.902 380.993 201.171 380.993C218.872 380.993 235.314 375.616 248.962 366.414C241.153 359.716 234.326 351.614 228.897 342.211Z"
        fill="#3F79AD" />
    <defs>
        <linearGradient id="paint0_linear_371_1232" x1="16" y1="264" x2="496" y2="264" gradientUnits="userSpaceOnUse">
            <stop stop-color="#3F79AD" />
            <stop offset="0.413097" stop-color="#EBF5FF" />
            <stop offset="0.808247" stop-color="#70CAF2" />
            <stop offset="1" stop-color="#E4EFF8" />
        </linearGradient>
        <linearGradient id="paint1_linear_371_1232" x1="255.759" y1="11.9993" x2="255.759" y2="480.226"
            gradientUnits="userSpaceOnUse">
            <stop stop-color="white" />
            <stop offset="1" stop-color="#DBDBDB" />
        </linearGradient>
    </defs>
</svg>
